X: 35584
T: Ryhope Colliery
R: hornpipe
M: 4/4
K: Gmajor
|:(3def|g>d^c>d B>GF>G|D>GB>G d>Bg>d|e>cB>c A>ce>g|f>df>a (3c'af (3dfa|
g>d^c>d B>GF>G|E>GD>G C>GB,>G|E>ec>A F>DE>F|A2 G2 G2:|
|:F>G|A>Bc>d c>AF>D|G>Bd>g b>gd>B|A>ce>g c'>ba>g|(3abg (3fge d2 e>f|
g>d^c>d B>GF>G|E>GD>G C>GB,>G|E>ec>A F>DE>F|A2 G2 G2:|

